svg/fluentui-system-icons/ic_fluent_text_case_title_20_regular.svg

<svg width="20" height="20" viewBox="0 0 20 20" fill="none" xmlns="http://www.w3.org/2000/svg">
<path d="M12.5 3.5C12.7761 3.5 13 3.72386 13 4V8.89121C13.5308 8.337 14.2316 8 15 8C16.6569 8 18 9.567 18 11.5C18 13.433 16.6569 15 15 15C14.2316 15 13.5308 14.663 13 14.1088V14.5C13 14.7761 12.7761 15 12.5 15C12.2239 15 12 14.7761 12 14.5V4C12 3.72386 12.2239 3.5 12.5 3.5ZM15 14C15.9655 14 17 13.0309 17 11.5C17 9.96911 15.9655 9 15 9C14.0345 9 13 9.96911 13 11.5C13 13.0309 14.0345 14 15 14ZM6.95657 3.83574C6.8875 3.63714 6.70155 3.50299 6.49131 3.50005C6.28106 3.49711 6.09144 3.62603 6.01685 3.82262L3.29341 11H3.27297V11.0539L2.03266 14.3226C1.93469 14.5808 2.06457 14.8695 2.32275 14.9675C2.58093 15.0654 2.86965 14.9356 2.96761 14.6774L3.98354 12L8.73755 12L9.66425 14.6643C9.75497 14.9251 10.0399 15.063 10.3008 14.9722C10.5616 14.8815 10.6995 14.5966 10.6087 14.3357L6.95657 3.83574ZM4.36298 11L6.46389 5.46323L8.38973 11L4.36298 11Z" fill="#212121"/>
</svg>

<svg xmlns="http://www.w3.org/2000/svg" width="20" height="20"><path d="M12.5 3.5a.5.5 0 0 1 .5.5v4.891C13.53 8.337 14.232 8 15 8c1.657 0 3 1.567 3 3.5S16.657 15 15 15c-.768 0-1.47-.337-2-.891v.391a.5.5 0 0 1-1 0V4a.5.5 0 0 1 .5-.5ZM15 14c.966 0 2-.97 2-2.5S15.966 9 15 9s-2 .97-2 2.5 1.034 2.5 2 2.5ZM6.957 3.836a.5.5 0 0 0-.94-.013L3.293 11h-.02v.054l-1.24 3.269a.5.5 0 0 0 .935.354L3.984 12h4.754l.926 2.664a.5.5 0 1 0 .945-.328l-3.652-10.5ZM4.363 11l2.1-5.537L8.39 11H4.363Z"/></svg>
